src/assets/svg/icons/fa/nuevos/classic/duotone/timer classic duotone.svg

<svg xmlns="http://www.w3.org/2000/svg" viewBox="0 0 512 512"><!--! Font Awesome Pro 6.4.0 by @fontawesome - https://fontawesome.com License - https://fontawesome.com/license (Commercial License) Copyright 2023 Fonticons, Inc. --><defs><style>.fa-secondary{opacity:.4}</style></defs><path class="fa-primary" d="M159 159c9.4-9.4 24.6-9.4 33.9 0l80 80c9.4 9.4 9.4 24.6 0 33.9s-24.6 9.4-33.9 0l-80-80c-9.4-9.4-9.4-24.6 0-33.9z"/><path class="fa-secondary" d="M224 32c0-17.7 14.3-32 32-32C397.4 0 512 114.6 512 256s-114.6 256-256 256S0 397.4 0 256C0 184.4 29.5 119.6 76.8 73.1c12.6-12.4 32.9-12.2 45.3 .5s12.2 32.9-.5 45.3C86 153.7 64 202.3 64 256c0 106 86 192 192 192s192-86 192-192c0-95.1-69.2-174.1-160-189.3V96c0 17.7-14.3 32-32 32s-32-14.3-32-32V32z"/></svg>

<svg xmlns="http://www.w3.org/2000/svg" viewBox="0 0 512 512"><defs><style>.fa-secondary{opacity:.4}</style></defs><path class="fa-primary" d="M159 159C168.4 149.7 183.6 149.7 192.1 159L272.1 239C282.3 248.4 282.3 263.6 272.1 272.1C263.6 282.3 248.4 282.3 239 272.1L159 192.1C149.7 183.6 149.7 168.4 159 159V159z"/><path class="fa-secondary" d="M224 32C224 14.33 238.3 0 256 0C397.4 0 512 114.6 512 256C512 397.4 397.4 512 256 512C114.6 512 0 397.4 0 256C0 184.4 29.46 119.6 76.84 73.14C89.46 60.78 109.7 60.98 122.1 73.6C134.5 86.23 134.3 106.5 121.6 118.9C86.03 153.7 64 202.3 64 256C64 362 149.1 448 256 448C362 448 448 362 448 256C448 160.9 378.8 81.89 288 66.65V96C288 113.7 273.7 128 256 128C238.3 128 224 113.7 224 96V32z"/></svg>
